X:490
T: WIR HABEN UNS DURCH GOTTES HAND
N: F0931
O: Europa, Mitteleuropa, Deutschland
R: Liebes - Lied, religioes
M: 4/4
L: 1/8
K: F
A2 | B2AGA2c2 | f3ed2
d2 | g2f2d2B2 | A4G2
A2 | B2AGA2c2 | f3ed2
d2 | f2d2A2cd | e3dc2
c2 | g2edc2BA | B2GBA2
c2 | g2edc2BA | B2GBA2
AB | d2c2f3e | e4d2
d2 | g2f2d2B2 | A6G2 | F4z2

@@@ Tune index: 5921
